X: 40849
T: Traveller's Joy
R: polka
M: 2/4
K: Gmajor
"D" f>g ag/f/|"G" gG B/c/d|"C" ee "G" dg/B/|B/A/G/B/ "D" A2|
"D" f>g ag/f/|"G" gG B/c/d|"C" ee "G"dg/g/|"D" af "G" g2:|
"D" AD/D/ Dc|"G" BG/A/ B/c/d|"C" ee "G" dg/B/|B/A/G/B/ "D" A2|
"D" AD/D/ Dc|"G" BG/A/ B/c/d|"C" ee "G"dg/g/|"D" af "G" g2:|

